X: 120
%
U:~=!turn!
T: The Countess of Haddington
C:Neil Gow
O:Scotland
B:Keith Norman MacDonald : "The Skye collection of the best reels & strathspeys extant" : 1887
Z:Ralph Palmer
R:Strathspey
M:C
L:1/8
K:Bb
F | (D/E/F) BF (D/E/F) BF | GE{/G}F{/E}D Ccc>Td | (D/E/F) BF (D/E/F) Bg | fd (e/d/)c/B/ FBB :| d | B/c/d/e/ fb Bbfd | (ed/c/) (e/d/)c/B/ Bc-cTd |
(B/c/d/e/) fb Bbfd | ed/c/ (e/d/)c/B/ FBTB>d | (B/c/d/e/) fb Bbfd | (ed/c/) (e/d/)c/B/ Gc-c>Td | B<FD<F D<FD<g | f>d (e/d/)c/B/ FBTB |]


